images/icon-services-1.svg

<svg width="48" height="48" viewBox="0 0 48 48" fill="none" xmlns="http://www.w3.org/2000/svg">
<path fill-rule="evenodd" clip-rule="evenodd" d="M15.4182 0.55181C13.6051 0.604779 13.414 0.62681 13.0016 0.829873C11.9961 1.32506 11.5281 2.60737 11.9855 3.61425C12.0804 3.82322 12.3814 4.18959 12.6544 4.42837L13.1507 4.86262L13.0901 5.99119C13.0524 6.69159 12.9013 7.75219 12.6916 8.78644C12.3011 10.7139 12.3007 11.2812 12.6897 11.945C13.1652 12.7563 14.0185 13.0196 15.0432 12.6712L15.6057 12.48L15.9338 12.7979C16.1143 12.9727 16.4188 13.1812 16.6105 13.261C17.2958 13.5465 18.4415 13.3777 19.1691 12.884L19.5257 12.642L20.1906 12.9538C20.7807 13.2305 20.9456 13.2656 21.6526 13.2656C22.3812 13.2656 22.4962 13.2391 22.995 12.9565L23.5405 12.6473L23.7218 12.878C23.8216 13.0048 24.1223 13.2177 24.3901 13.3511C25.2579 13.7836 26.2908 13.6454 27.063 12.9937C27.3065 12.788 27.3991 12.7582 27.5479 12.8379C27.6491 12.8921 27.9451 12.9821 28.2057 13.038C29.0508 13.2192 29.9686 12.7952 30.3508 12.0469C30.5542 11.6484 30.5716 10.9574 30.4146 9.50625C30.2421 7.91072 30.2702 6.38944 30.4898 5.44144C30.5862 5.02519 30.6518 4.91756 30.8414 4.86478C30.9695 4.82915 31.8549 4.79662 32.8088 4.79259C37.8215 4.7715 47.0294 4.56178 47.2463 4.4639C47.4244 4.38347 47.4876 4.27519 47.5095 4.01278C47.5637 3.36103 47.6167 3.36778 43.2586 3.46978C41.1464 3.51928 33.6231 3.60422 26.5403 3.65859C12.1824 3.76894 13.3504 3.81562 13.0593 3.11897C12.9404 2.83425 12.938 2.7345 13.0438 2.45662C13.1123 2.27672 13.2874 2.04056 13.4329 1.9319C13.6947 1.73653 13.7551 1.73437 18.9173 1.73437C22.2653 1.73437 25.1286 1.78481 26.9026 1.875C30.7986 2.07309 46.9941 2.02959 47.3166 1.82015C47.5684 1.65665 47.6082 1.12115 47.3824 0.933748C47.2662 0.837279 45.5349 0.817123 38.6871 0.832592C32.4385 0.846654 29.2158 0.814404 26.7151 0.712873C22.4603 0.539998 17.9975 0.476435 15.4182 0.55181ZM14.4242 4.93697C14.2999 4.97025 14.2642 5.19028 14.2171 6.21515C14.1781 7.05881 14.0674 7.88606 13.8693 8.8125C13.7095 9.56015 13.5712 10.4186 13.5622 10.7201C13.5473 11.2168 13.5709 11.2901 13.8134 11.4986C14.1139 11.7572 14.3954 11.7402 15.016 11.4261C15.2073 11.3292 15.5212 11.25 15.7135 11.25C16.0126 11.25 16.1254 11.3175 16.4949 11.7172C16.7607 12.0048 17.0356 12.2063 17.2099 12.2411C17.6128 12.3217 18.2268 12.1317 18.7692 11.7587C19.0319 11.578 19.3525 11.4375 19.5022 11.4375C19.6487 11.4375 20.0699 11.595 20.4384 11.7875C20.9853 12.0732 21.2073 12.1375 21.6466 12.1375C22.1147 12.1375 22.2508 12.092 22.6929 11.7875C23.4348 11.2764 23.7677 11.2994 24.4087 11.9056C25.1718 12.6273 25.6728 12.6483 26.3886 11.9884C26.912 11.5059 27.3568 11.4244 27.9138 11.7086C28.418 11.9658 28.9056 11.9657 29.1631 11.7082C29.3471 11.5242 29.3569 11.4436 29.3033 10.5598C29.1551 8.1179 29.1359 6.74325 29.2391 5.96719C29.2988 5.51878 29.3719 5.08847 29.4016 5.01103C29.4486 4.88869 29.2545 4.87359 27.9213 4.89609L26.3869 4.92187L26.3585 5.85937C26.3429 6.375 26.3842 7.15547 26.4503 7.59375C26.5165 8.03203 26.5602 8.475 26.5473 8.57812C26.5008 8.95134 25.9859 9.12703 25.6543 8.88281C25.3968 8.69325 25.2027 7.50431 25.2026 6.11719V4.875H23.8182H22.4339L22.3435 6.19931C22.2607 7.41403 22.2352 7.53815 22.0363 7.69931C21.7499 7.93125 21.5962 7.92094 21.3271 7.65178C21.1151 7.43981 21.1059 7.3815 21.1469 6.50334C21.1706 5.99447 21.2057 5.41997 21.2249 5.22656L21.2597 4.875H19.9093H18.5588L18.5571 5.60156C18.5554 6.30272 18.3485 8.04965 18.2309 8.3564C18.1993 8.43862 18.0704 8.55281 17.9443 8.61028C17.6654 8.7374 17.2784 8.59256 17.195 8.32997C17.1648 8.2349 17.2092 7.62197 17.2935 6.96797C17.382 6.28153 17.4205 5.58778 17.3846 5.32687L17.3224 4.875L15.9484 4.88587C15.1927 4.89187 14.5068 4.91484 14.4242 4.93697ZM6.49337 8.3534C5.3469 8.79412 4.40255 10.1371 4.40255 11.3268C4.40255 12.1278 4.62962 12.5928 5.34315 13.2534C7.22565 14.9963 9.68152 14.1115 10.1369 11.5262C10.251 10.8786 10.1283 10.0312 9.8394 9.47109C9.25534 8.33859 7.79799 7.85184 6.49337 8.3534ZM6.77237 9.52022C6.05687 9.87675 5.52755 10.6677 5.52755 11.3803C5.52755 12.1359 6.7388 13.0948 7.5773 13.0029C8.11309 12.9442 8.42124 12.7022 8.7474 12.0838C8.98834 11.6271 9.01027 11.5091 8.97465 10.8655C8.94437 10.3196 8.88577 10.0835 8.72396 9.85631C8.28559 9.24065 7.57787 9.11878 6.77237 9.52022ZM13.9182 15.2932C9.03943 15.9032 6.60718 20.294 7.82265 26.297C8.30227 28.6659 9.17171 30.9646 10.7416 34.0144C12.2251 36.8965 12.4398 37.5306 13.2641 41.4646C13.7794 43.9246 14.0601 44.9245 14.4825 45.8051C14.8199 46.5085 15.362 47.1434 15.8336 47.3872C16.5429 47.7541 17.6325 47.6803 18.1444 47.2308C19.0688 46.4192 19.3921 45.2093 19.9177 40.5938C20.5052 35.435 20.9923 33.826 21.8054 34.3587C22.403 34.7504 22.7234 36.1888 23.2457 40.8281C23.6844 44.7231 24.027 46.1577 24.7085 46.954C25.5457 47.932 27.2342 47.8117 28.1002 46.7122C28.7993 45.8245 29.1686 44.7506 29.8144 41.7273C30.674 37.7031 30.9526 36.8019 31.8852 35.0282C33.8241 31.3403 34.8254 28.779 35.3582 26.1434C35.5373 25.2576 35.5733 24.7859 35.572 23.3437C35.5699 21.2687 35.4246 20.5752 34.6686 19.034C33.6091 16.8742 31.6928 15.6013 29.0203 15.2823C27.3602 15.084 25.6113 15.3934 23.6474 16.2324C22.8597 16.569 22.6184 16.6282 21.8776 16.667C20.8834 16.7189 20.3254 16.6098 19.3068 16.164C18.2977 15.7223 17.1266 15.4033 16.09 15.2877C15.0836 15.1755 14.8555 15.1761 13.9182 15.2932ZM13.5901 16.5484C10.6988 17.1391 9.04524 19.1059 8.70174 22.3624C8.38524 25.3639 9.56537 29.4889 12.0369 34.0197C13.1562 36.0716 13.5654 37.3068 14.3422 40.9791C15.0987 44.5549 15.4867 45.6584 16.171 46.1803C16.5841 46.4954 17.2198 46.5441 17.5086 46.2828C18.0028 45.8356 18.3212 44.3337 18.7916 40.2333C18.9769 38.617 19.1933 36.9537 19.2723 36.537C19.6843 34.3655 20.3583 33.2552 21.3451 33.1229C22.3846 32.9835 23.1626 33.782 23.6176 35.4554C23.8713 36.3882 24.0333 37.4688 24.3736 40.5C24.828 44.5468 25.2309 46.1806 25.831 46.4088C26.374 46.6152 27.048 46.2843 27.4677 45.6052C27.8184 45.0376 28.1978 43.7473 28.6868 41.4589C29.6116 37.1307 29.8127 36.5217 31.2165 33.7969C33.1963 29.9536 34.1109 27.3351 34.4056 24.6664C34.7863 21.2188 33.6601 18.3877 31.4494 17.2345C30.2277 16.5972 29.5756 16.452 27.9807 16.4618C26.3701 16.4718 25.7537 16.6017 24.2183 17.2552C23.4427 17.5853 22.322 17.8804 21.7463 17.906C21.4943 17.9171 21.9441 18.1852 22.4732 18.339C23.1454 18.5345 23.346 18.9316 22.9651 19.3125C22.5181 19.7595 21.625 19.4421 20.5637 18.4589C19.6387 17.6018 19.2345 17.3467 18.2095 16.9726C16.7229 16.43 14.9611 16.2682 13.5901 16.5484ZM2.96855 17.7546C1.89859 18.0517 1.25274 19.3735 1.58968 20.5766C1.91152 21.7263 3.36343 22.513 4.61096 22.2138C5.21471 22.0688 5.89627 21.4309 6.06924 20.8485C6.44968 19.5674 5.91859 18.3481 4.77249 17.8714C4.27552 17.6647 3.47809 17.6131 2.96855 17.7546ZM2.95599 19.0631C2.83534 19.1837 2.70699 19.4575 2.6709 19.6717C2.5374 20.4616 3.14105 21.0937 4.02868 21.0937C4.56334 21.0937 4.83568 20.9064 4.97443 20.4431C5.24949 19.5252 4.68699 18.8437 3.65443 18.8437C3.27709 18.8437 3.12868 18.8903 2.95599 19.0631ZM38.9969 20.0859C38.263 20.4596 37.9214 21.5776 38.2792 22.4342C38.4409 22.8212 38.9751 23.2913 39.4201 23.4382C39.9674 23.6187 40.7932 23.5192 41.1771 23.2266C41.7412 22.7962 42.0032 22.0035 41.8139 21.3001C41.5021 20.1419 40.0856 19.5315 38.9969 20.0859ZM39.4309 21.1977C39.1113 21.6541 39.3344 22.2291 39.8846 22.3672C40.2961 22.4705 40.5773 22.3405 40.6652 22.0066C40.8136 21.4433 40.5721 21.1112 39.9539 21.0283C39.6418 20.9864 39.5605 21.0127 39.4309 21.1977Z" fill="#0E384C"/>
<path fill-rule="evenodd" clip-rule="evenodd" d="M13.9183 15.2932C9.03952 15.9032 6.60727 20.294 7.82274 26.297C8.30236 28.6659 9.1718 30.9646 10.7417 34.0144C12.2252 36.8965 12.4399 37.5306 13.2642 41.4646C13.7795 43.9246 14.0602 44.9245 14.4826 45.8051C14.82 46.5085 15.3621 47.1434 15.8337 47.3872C16.543 47.7541 17.6326 47.6803 18.1445 47.2308C19.0689 46.4192 19.3921 45.2093 19.9178 40.5937C20.5053 35.435 20.9924 33.826 21.8055 34.3587C22.4031 34.7504 22.7235 36.1888 23.2458 40.8281C23.6845 44.7231 24.0271 46.1577 24.7086 46.954C25.5458 47.932 27.2343 47.8117 28.1003 46.7122C28.7994 45.8245 29.1687 44.7506 29.8145 41.7273C30.6741 37.7031 30.9526 36.8019 31.8853 35.0282C33.8242 31.3402 34.8255 28.779 35.3583 26.1434C35.5374 25.2576 35.5734 24.7859 35.5721 23.3437C35.57 21.2687 35.4247 20.5752 34.6687 19.034C33.6092 16.8742 31.6929 15.6013 29.0204 15.2823C27.3603 15.084 25.6114 15.3934 23.6475 16.2324C22.8598 16.569 22.6185 16.6282 21.8776 16.667C20.8835 16.7189 20.3255 16.6098 19.3069 16.164C18.2978 15.7223 17.1267 15.4033 16.0901 15.2877C15.0837 15.1755 14.8556 15.1761 13.9183 15.2932ZM13.5901 16.5484C10.6989 17.1391 9.04533 19.1059 8.70183 22.3624C8.38533 25.3639 9.56546 29.4889 12.037 34.0197C13.1563 36.0716 13.5655 37.3068 14.3423 40.9791C15.0988 44.5549 15.4868 45.6584 16.1711 46.1803C16.5841 46.4954 17.2199 46.5441 17.5087 46.2828C18.0029 45.8356 18.3213 44.3337 18.7917 40.2333C18.977 38.617 19.1934 36.9537 19.2724 36.537C19.6844 34.3655 20.3584 33.2552 21.3451 33.1229C22.3846 32.9835 23.1627 33.782 23.6177 35.4554C23.8714 36.3882 24.0334 37.4688 24.3736 40.5C24.8281 44.5468 25.231 46.1806 25.8311 46.4088C26.3741 46.6152 27.0481 46.2843 27.4678 45.6052C27.8185 45.0376 28.1979 43.7473 28.6869 41.4589C29.6117 37.1307 29.8128 36.5217 31.2166 33.7969C33.1964 29.9536 34.111 27.3351 34.4056 24.6664C34.7864 21.2188 33.6602 18.3877 31.4495 17.2345C30.2278 16.5972 29.5756 16.452 27.9808 16.4618C26.3701 16.4718 25.7538 16.6017 24.2184 17.2552C23.4428 17.5853 22.3221 17.8804 21.7464 17.906C21.4944 17.9171 21.9442 18.1852 22.4732 18.339C23.1455 18.5345 23.3461 18.9316 22.9651 19.3125C22.5181 19.7595 21.6251 19.4421 20.5638 18.4589C19.6388 17.6018 19.2346 17.3467 18.2096 16.9726C16.723 16.43 14.9612 16.2682 13.5901 16.5484Z" fill="#1E84B5"/>
</svg>

<svg xmlns="http://www.w3.org/2000/svg" width="48" height="48" fill="none" viewBox="0 0 48 48"><path fill="#0e384c" fill-rule="evenodd" d="M15.418.552c-1.813.053-2.004.075-2.416.278-1.006.495-1.474 1.777-1.017 2.784.095.21.396.576.67.814l.496.435-.06 1.128c-.039.7-.19 1.761-.4 2.795-.39 1.928-.39 2.495-.001 3.159.475.811 1.329 1.075 2.353.726l.563-.191.328.318c.18.175.485.383.676.463.686.286 1.832.117 2.56-.377l.356-.242.665.312c.59.276.755.312 1.462.312.728 0 .843-.027 1.342-.31l.546-.309.18.231c.1.127.401.34.67.473.867.433 1.9.294 2.672-.357.244-.206.336-.236.485-.156.101.054.397.144.658.2.845.181 1.763-.243 2.145-.991.203-.399.22-1.09.064-2.54-.173-1.596-.145-3.118.075-4.066.096-.416.162-.523.351-.576.128-.036 1.014-.068 1.968-.072 5.013-.022 14.22-.231 14.437-.33.178-.08.242-.188.264-.45.054-.652.107-.645-4.251-.543-2.113.05-9.636.134-16.719.189-14.358.11-13.19.157-13.48-.54-.12-.285-.122-.385-.016-.662.068-.18.243-.416.389-.525.262-.195.322-.198 5.484-.198 3.348 0 6.212.05 7.986.141 3.896.198 20.091.155 20.414-.055.251-.163.291-.699.065-.886-.116-.097-1.847-.117-8.695-.101-6.248.014-9.471-.019-11.972-.12C22.46.54 17.997.476 15.418.552m-.994 4.385c-.124.033-.16.253-.207 1.278a15.6 15.6 0 0 1-.348 2.598c-.16.747-.298 1.606-.307 1.907-.015.497.009.57.251.779.3.258.582.241 1.203-.073.191-.097.505-.176.697-.176.3 0 .412.068.782.467.266.288.54.49.715.524.403.08 1.017-.11 1.56-.482.262-.181.582-.322.732-.322.147 0 .568.158.936.35.547.286.77.35 1.209.35.468 0 .604-.045 1.046-.35.742-.51 1.075-.488 1.716.119.763.721 1.264.742 1.98.082.523-.482.968-.564 1.525-.28.504.258.992.258 1.25 0 .183-.184.193-.264.14-1.148-.149-2.442-.168-3.817-.065-4.593.06-.448.133-.879.163-.956.047-.122-.148-.137-1.48-.115l-1.535.026-.029.937a12 12 0 0 0 .092 1.735c.067.438.11.881.097.984-.046.373-.561.549-.893.305-.257-.19-.451-1.379-.451-2.766V4.875h-2.769l-.09 1.324c-.083 1.215-.109 1.34-.308 1.5-.286.232-.44.222-.709-.047-.212-.212-.221-.27-.18-1.149.024-.509.059-1.083.078-1.276l.035-.352h-2.701l-.002.727c-.002.7-.208 2.448-.326 2.754-.032.083-.16.197-.287.254-.279.127-.666-.017-.749-.28-.03-.095.014-.708.099-1.362.088-.686.127-1.38.09-1.641l-.062-.452-1.374.01c-.755.007-1.441.03-1.524.052m-7.93 3.416c-1.147.441-2.091 1.784-2.091 2.974 0 .8.227 1.266.94 1.926 1.883 1.743 4.339.858 4.794-1.727.114-.647-.009-1.495-.298-2.055-.584-1.132-2.041-1.62-3.346-1.118m.278 1.167c-.715.357-1.244 1.148-1.244 1.86 0 .756 1.21 1.715 2.05 1.623.535-.059.843-.3 1.17-.92.24-.456.262-.574.227-1.217-.03-.546-.09-.782-.251-1.01-.438-.615-1.146-.737-1.952-.336m7.146 5.773c-4.879.61-7.31 5.001-6.095 11.004.48 2.369 1.349 4.668 2.919 7.717 1.483 2.883 1.698 3.517 2.522 7.45.515 2.46.796 3.46 1.219 4.341.337.703.879 1.338 1.35 1.582.71.367 1.8.293 2.311-.156.925-.812 1.248-2.022 1.774-6.637.587-5.159 1.074-6.768 1.887-6.235.598.391.918 1.83 1.44 6.47.44 3.894.782 5.329 1.463 6.125.838.978 2.526.858 3.392-.242.7-.888 1.069-1.961 1.714-4.985.86-4.024 1.139-4.925 2.071-6.699 1.94-3.688 2.94-6.249 3.473-8.885.18-.885.215-1.357.214-2.8-.002-2.074-.147-2.768-.903-4.309-1.06-2.16-2.976-3.433-5.649-3.752-1.66-.198-3.409.111-5.373.95-.787.337-1.029.396-1.77.435-.994.052-1.552-.057-2.57-.503a11.6 11.6 0 0 0-3.217-.876c-1.006-.113-1.235-.112-2.172.005m-.328 1.255c-2.891.591-4.545 2.558-4.888 5.814-.317 3.002.863 7.127 3.335 11.658 1.12 2.052 1.528 3.287 2.305 6.96.757 3.575 1.145 4.678 1.829 5.2.413.315 1.049.364 1.338.103.494-.447.812-1.95 1.283-6.05.185-1.616.401-3.28.48-3.696.412-2.172 1.086-3.282 2.073-3.414 1.04-.14 1.818.659 2.273 2.332.253.933.415 2.014.756 5.045.454 4.047.857 5.68 1.457 5.909.543.206 1.217-.125 1.637-.804.35-.567.73-1.858 1.219-4.146.925-4.328 1.126-4.937 2.53-7.662 1.98-3.843 2.894-6.462 3.189-9.13.38-3.448-.746-6.28-2.957-7.433-1.221-.637-1.873-.782-3.468-.772-1.61.01-2.227.14-3.763.793-.775.33-1.896.625-2.472.651-.252.011.198.28.727.433.672.196.873.593.492.974-.447.447-1.34.13-2.401-.854-.925-.857-1.33-1.112-2.355-1.486-1.486-.543-3.248-.705-4.619-.425M2.97 17.755c-1.07.297-1.716 1.619-1.38 2.822.323 1.15 1.774 1.936 3.022 1.637.604-.145 1.285-.783 1.458-1.365.38-1.282-.15-2.5-1.297-2.978-.496-.206-1.294-.258-1.803-.116m-.013 1.308c-.12.12-.249.395-.285.609-.134.79.47 1.422 1.358 1.422.534 0 .807-.188.945-.65.275-.919-.287-1.6-1.32-1.6-.377 0-.525.046-.698.22m36.04 1.023c-.733.374-1.075 1.492-.717 2.348.162.387.696.857 1.141 1.004.547.18 1.373.081 1.757-.211.564-.43.826-1.224.637-1.927-.312-1.158-1.728-1.768-2.817-1.214m.435 1.112c-.32.456-.097 1.031.454 1.17.411.103.692-.027.78-.361.149-.564-.093-.896-.711-.979-.312-.042-.394-.015-.523.17" clip-rule="evenodd"/><path fill="#1e84b5" fill-rule="evenodd" d="M13.918 15.293c-4.878.61-7.31 5.001-6.095 11.004.48 2.369 1.349 4.668 2.919 7.717 1.483 2.883 1.698 3.517 2.522 7.45.516 2.46.796 3.46 1.219 4.341.337.703.88 1.338 1.35 1.582.71.367 1.8.293 2.312-.156.924-.812 1.247-2.022 1.773-6.637.587-5.159 1.074-6.768 1.887-6.235.598.391.919 1.83 1.44 6.47.44 3.894.782 5.329 1.464 6.125.837.978 2.525.858 3.391-.242.7-.888 1.069-1.961 1.714-4.985.86-4.024 1.139-4.925 2.071-6.699 1.94-3.688 2.94-6.249 3.473-8.885.18-.885.215-1.357.214-2.8-.002-2.074-.147-2.768-.903-4.309-1.06-2.16-2.976-3.433-5.649-3.752-1.66-.198-3.409.111-5.372.95-.788.337-1.03.396-1.77.435-.994.052-1.552-.057-2.571-.503a11.6 11.6 0 0 0-3.217-.876c-1.006-.113-1.234-.112-2.172.005m-.328 1.255c-2.891.591-4.545 2.558-4.888 5.814-.317 3.002.863 7.127 3.335 11.658 1.12 2.052 1.528 3.287 2.305 6.96.757 3.575 1.145 4.678 1.83 5.2.412.315 1.048.364 1.337.103.494-.447.812-1.95 1.283-6.05.185-1.616.401-3.28.48-3.696.412-2.172 1.086-3.282 2.073-3.414 1.04-.14 1.818.659 2.273 2.332.253.933.415 2.014.756 5.045.454 4.047.857 5.68 1.457 5.909.543.206 1.217-.125 1.637-.804.35-.567.73-1.858 1.219-4.146.925-4.328 1.126-4.937 2.53-7.662 1.98-3.843 2.894-6.462 3.189-9.13.38-3.448-.746-6.28-2.956-7.433-1.222-.637-1.874-.782-3.47-.772-1.61.01-2.226.14-3.762.793-.775.33-1.896.625-2.472.651-.252.011.198.28.727.433.672.196.873.593.492.974-.447.447-1.34.13-2.401-.854-.925-.857-1.33-1.112-2.354-1.486-1.487-.543-3.249-.705-4.62-.425" clip-rule="evenodd"/></svg>
